packages/ffe-icons/icons/filled/md/enhanced_encryption.svg

<svg xmlns="http://www.w3.org/2000/svg" height="24" viewBox="0 -960 960 960" width="24"><path d="M450.001-330.001V-240q0 12.75 8.628 21.374 8.629 8.625 21.384 8.625 12.756 0 21.371-8.625 8.615-8.624 8.615-21.374v-90.001H600q12.75 0 21.375-8.628 8.624-8.629 8.624-21.384 0-12.756-8.624-21.371-8.625-8.615-21.375-8.615h-90.001V-480q0-12.75-8.628-21.374-8.629-8.625-21.384-8.625-12.756 0-21.371 8.625-8.615 8.624-8.615 21.374v90.001H360q-12.75 0-21.374 8.628-8.625 8.629-8.625 21.384 0 12.756 8.625 21.371 8.624 8.615 21.374 8.615h90.001Zm-197.692 230q-29.827 0-51.067-21.241-21.241-21.24-21.241-51.067v-375.382q0-29.827 21.241-51.067 21.24-21.241 51.067-21.241h47.692v-80q0-74.922 52.538-127.46Q405.078-879.997 480-879.997t127.461 52.538q52.538 52.538 52.538 127.46v80h47.692q29.827 0 51.067 21.241 21.241 21.24 21.241 51.067v375.382q0 29.827-21.241 51.067-21.24 21.241-51.067 21.241H252.309ZM360-619.999h240v-80q0-50-35-85t-85-35q-50 0-85 35t-35 85v80Z"/></svg>

<svg xmlns="http://www.w3.org/2000/svg" height="24" viewBox="0 -960 960 960" width="24"><path d="M450-330v90q0 12.75 8.63 21.37 8.63 8.63 21.38 8.63 12.76 0 21.37-8.63Q510-227.25 510-240v-90h90q12.75 0 21.37-8.63 8.63-8.63 8.63-21.38 0-12.76-8.63-21.37Q612.75-390 600-390h-90v-90q0-12.75-8.63-21.37-8.63-8.63-21.38-8.63-12.76 0-21.37 8.63Q450-492.75 450-480v90h-90q-12.75 0-21.37 8.63-8.63 8.63-8.63 21.38 0 12.76 8.63 21.37Q347.25-330 360-330h90ZM252.31-100q-29.83 0-51.07-21.24Q180-142.48 180-172.31v-375.38q0-29.83 21.24-51.07Q222.48-620 252.31-620H300v-80q0-74.92 52.54-127.46Q405.08-880 480-880q74.92 0 127.46 52.54Q660-774.92 660-700v80h47.69q29.83 0 51.07 21.24Q780-577.52 780-547.69v375.38q0 29.83-21.24 51.07Q737.52-100 707.69-100H252.31ZM360-620h240v-80q0-50-35-85t-85-35q-50 0-85 35t-35 85v80Z"/></svg>
